X:3550
T:Crooked Road to Dublin
S:Trad, arr. Paddy O'Brien
Z: set: Crooked Road to Dublin/College Grove/Killaghbeg House
R:reel
E:10
I:speed 350
M:C|
K:G
F2|~G2~G2 FGAF|~G2 FG AdcA|GBAG FGAg|fdcA ~d2 cA|\
~G2 ~G2 FGAF|~G2 FG AdcA|GBAG FGAg|fdcA ~d2cA||\
dg~g2 fgag|dg~g2 agfe|dg~g2 fgag|fdcA ~d2cA|\
dg ~g2fgaf|dg ~g2 ~a2ga|bgaf gbag|fdcA ~d2cA||**


